packages/dnb-ui-lib/assets/icons/card_in.svg

<svg width="16" height="16" viewBox="0 0 16 16" fill="none" xmlns="http://www.w3.org/2000/svg">
<path d="M15 4.24444L15.75 4.24445V4.24444H15ZM14.9999 11.2556L14.2499 11.2556V11.2556H14.9999ZM7.99996 9.40556C7.58575 9.40556 7.24996 9.74134 7.24996 10.1556C7.24996 10.5698 7.58575 10.9056 7.99996 10.9056V9.40556ZM12.6666 10.9056C13.0808 10.9056 13.4166 10.5698 13.4166 10.1556C13.4166 9.74134 13.0808 9.40556 12.6666 9.40556V10.9056ZM1.15552 7.22778C0.741304 7.22778 0.405518 7.56356 0.405518 7.97778C0.405518 8.39199 0.741304 8.72778 1.15552 8.72778V7.22778ZM3.7363 9.003C3.44341 9.2959 3.44341 9.77077 3.7363 10.0637C4.02919 10.3566 4.50407 10.3566 4.79696 10.0637L3.7363 9.003ZM5.82218 7.97778L6.35251 8.50811C6.49317 8.36746 6.57218 8.17669 6.57218 7.97778C6.57218 7.77886 6.49317 7.5881 6.35251 7.44745L5.82218 7.97778ZM4.79696 5.89189C4.50407 5.599 4.02919 5.599 3.7363 5.89189C3.44341 6.18479 3.44341 6.65966 3.7363 6.95255L4.79696 5.89189ZM0.64642 3.0509C0.398389 3.38264 0.466252 3.85264 0.797995 4.10067C1.12974 4.34871 1.59974 4.28084 1.84777 3.9491L0.64642 3.0509ZM1.84776 11.5509C1.59971 11.2192 1.12971 11.1513 0.797977 11.3994C0.466241 11.6474 0.398393 12.1174 0.646434 12.4491L1.84776 11.5509ZM2.24441 3.75H13.7555V2.25H2.24441V3.75ZM14.25 4.24444L14.2499 11.2556L15.7499 11.2556L15.75 4.24445L14.25 4.24444ZM13.7555 11.75H2.24438V13.25H13.7555V11.75ZM7.99996 10.9056H12.6666V9.40556H7.99996V10.9056ZM14.2499 11.2556C14.2499 11.5286 14.0286 11.75 13.7555 11.75V13.25C14.857 13.25 15.7499 12.3571 15.7499 11.2556H14.2499ZM13.7555 3.75C14.0286 3.75 14.25 3.97137 14.25 4.24444H15.75C15.75 3.14294 14.857 2.25 13.7555 2.25V3.75ZM4.79696 10.0637L6.35251 8.50811L5.29185 7.44745L3.7363 9.003L4.79696 10.0637ZM6.35251 7.44745L4.79696 5.89189L3.7363 6.95255L5.29185 8.50811L6.35251 7.44745ZM1.15552 8.72778H5.82218V7.22778H1.15552V8.72778ZM2.24441 2.25C1.58981 2.25 1.00885 2.56615 0.64642 3.0509L1.84777 3.9491C1.93921 3.8268 2.08274 3.75 2.24441 3.75V2.25ZM2.24438 11.75C2.08272 11.75 1.93919 11.6732 1.84776 11.5509L0.646434 12.4491C1.00886 12.9339 1.5898 13.25 2.24438 13.25V11.75Z" fill="black"/>
</svg>

<svg width="16" height="16" viewBox="0 0 16 16" fill="none" xmlns="http://www.w3.org/2000/svg"><path d="M15 4.244h.75H15zm0 7.012h-.75.75zm-7-1.85a.75.75 0 000 1.5v-1.5zm4.667 1.5a.75.75 0 000-1.5v1.5zM1.156 7.228a.75.75 0 100 1.5v-1.5zm2.58 1.775a.75.75 0 001.061 1.06l-1.06-1.06zm2.086-1.025l.53.53a.75.75 0 000-1.06l-.53.53zM4.797 5.892a.75.75 0 00-1.06 1.06l1.06-1.06zM.647 3.05a.75.75 0 101.2.898l-1.2-.898zm1.2 8.5a.75.75 0 00-1.2.898l1.2-.898zm.397-7.801h11.511v-1.5H2.245v1.5zm12.006.494v7.012h1.5V4.244h-1.5zm-.495 7.506H2.245v1.5h11.51v-1.5zM8 10.906h4.667v-1.5H8v1.5zm6.25.35a.494.494 0 01-.495.494v1.5a1.994 1.994 0 001.995-1.994h-1.5zm-.495-7.506c.274 0 .495.221.495.494h1.5a1.994 1.994 0 00-1.995-1.994v1.5zm-8.958 6.314l1.556-1.556-1.061-1.06-1.556 1.555 1.061 1.06zm1.556-2.617L4.797 5.892l-1.06 1.06 1.555 1.556 1.06-1.06zm-5.197 1.28h4.666v-1.5H1.156v1.5zM2.244 2.25c-.654 0-1.235.316-1.598.8l1.202.9a.493.493 0 01.396-.2v-1.5zm0 9.5a.493.493 0 01-.396-.2l-1.202.9c.363.484.944.8 1.598.8v-1.5z" fill="#000"/></svg>
